X: 1288
T:Gan Ainm
R:Reel
D:Session tape, Kitchen Bar, Belfast late 80's
M:4/4
Z:Bernie Stocks
K:D
d2fd adfd | abaf edBA | d2fd adfd |1 abaf e2dB :|2 abaf e2de ||
fBBA Bcde | fBBc d3e | fBBA Bcde |1 f2af e2de :|2 f2af e2dB ||
%C:/music/abc/abcfiles/layton/big1.abc
